;FLAVOR:Marlin
;TIME:52
;Filament used: 0.124732m
;Layer height: 2
;MINX:34.687
;MINY:34.73
;MINZ:0.32
;MAXX:185.314
;MAXY:185.27
;MAXZ:0.32
;Generated with Cura_SteamEngine 4.9.1
M82 ;absolute extrusion mode
; Ender 3 Custom Start G-code
M140 S60 ; Set Heat Bed temperature
M190 S60 ; Wait for Heat Bed temperature
M104 S160; start warming extruder to 160
G28 ; Home all axes
G29 ; Auto bed-level (BL-Touch)
G92 E0 ; Reset Extruder
M104 S200 ; Set Extruder temperature
G1 X0.1 Y20 Z0.3 F5000.0 ; Move to start position
M109 S200 ; Wait for Extruder temperature
; G1 Z2.0 F3000 ; Move Z Axis up little to prevent scratching of Heat Bed
G1 X0.1 Y200.0 Z0.3 F1500.0 E15 ; Draw the first line
G1 X0.4 Y200.0 Z0.3 F5000.0 ; Move to side a little
G1 X0.4 Y20 Z0.3 F1500.0 E30 ; Draw the second line
G92 E0 ; Reset Extruder
G1 Z2.0 F3000 ; Move Z Axis up little to prevent scratching of Heat Bed
; End of custom start GCode
G92 E0
G92 E0
G1 F1500 E-6.5
;LAYER_COUNT:1
;LAYER:0
M107
;MESH:kreis.svg_2mm.stl
G0 F6000 X110.763 Y183.814 Z0.32
;TYPE:WALL-OUTER
G1 F1500 E0
G1 F1200 X115.186 Y183.683 E0.5887
G1 X117.724 Y183.533 E0.92694
G1 X120.972 Y183.127 E1.36242
G1 X128.206 Y181.598 E2.3461
G1 X137.451 Y178.575 E3.64014
G1 X146.229 Y174.384 E4.93425
G1 X152.519 Y170.496 E5.91804
G1 X154.916 Y168.719 E6.31501
G1 X156.126 Y167.74 E6.52208
G1 X157.989 Y166.12 E6.85054
G1 X159.999 Y164.26 E7.21488
G1 X162.056 Y162.258 E7.59676
G1 X164.062 Y160.212 E7.97796
G1 X165.924 Y158.215 E8.34122
G1 X167.542 Y156.369 E8.66779
G1 X168.517 Y155.175 E8.87288
G1 X168.968 Y154.566 E8.9737
G1 X170.642 Y152.325 E9.34584
G1 X175.353 Y144.483 E10.56293
G1 X180.074 Y133.611 E12.13983
G1 X182.942 Y122.268 E13.69639
G1 X183.91 Y113.504 E14.86945
G1 X183.91 Y108.355 E15.55448
G1 X183.449 Y101.698 E16.44225
G1 X182.037 Y93.291 E17.57639
G1 X179.631 Y85.15 E18.70578
G1 X177.149 Y79.029 E19.58452
G1 X175.561 Y75.791 E20.06433
G1 X173.499 Y72.116 E20.62495
G1 X170.42 Y67.397 E21.37459
G1 X166.961 Y62.91 E22.12833
G1 X163.145 Y58.676 E22.88665
G1 X158.988 Y54.718 E23.65028
G1 X154.515 Y51.057 E24.41928
G1 X149.749 Y47.72 E25.19333
G1 X145.991 Y45.42 E25.7795
G1 X143.431 Y44.022 E26.16756
G1 X139.499 Y42.188 E26.74478
G1 X133.817 Y40.018 E27.55397
G1 X127.781 Y38.243 E28.391
G1 X123.098 Y37.179 E29.02991
G1 X120.971 Y36.806 E29.31721
G1 X119.316 Y36.563 E29.53975
G1 X117.106 Y36.373 E29.83485
G1 X114.229 Y36.291 E30.21777
G1 X110.912 Y36.273 E30.65907
G1 X108.729 Y36.274 E30.9495
G1 X105.827 Y36.291 E31.33559
G1 X102.944 Y36.373 E31.7193
G1 X100.722 Y36.563 E32.01599
G1 X99.02 Y36.813 E32.24486
G1 X95.592 Y37.41 E32.70778
G1 X86.981 Y39.762 E33.89536
G1 X76.393 Y44.18 E35.42171
G1 X66.71 Y50.188 E36.93776
G1 X59.943 Y55.751 E38.10321
G1 X56.222 Y59.486 E38.80463
G1 X51.592 Y64.86 E39.74834
G1 X46.464 Y72.253 E40.94536
G1 X42.375 Y80.21 E42.13556
G1 X39.865 Y86.728 E43.06479
G1 X39.142 Y89.127 E43.39814
G1 X38.527 Y91.158 E43.68046
G1 X37.116 Y97.933 E44.60115
G1 X36.181 Y107.198 E45.84003
G1 X36.396 Y116.504 E47.07844
G1 X37.279 Y123.364 E47.99862
G1 X38.196 Y127.544 E48.56796
G1 X39.878 Y133.243 E49.35849
G1 X42.758 Y140.532 E50.40117
G1 X46.376 Y147.447 E51.43946
G1 X50.706 Y153.938 E52.47753
G1 X55.706 Y159.958 E53.51866
G1 X61.342 Y165.461 E54.56662
G1 X67.58 Y170.398 E55.625
G1 X72.637 Y173.74 E56.43143
G1 X75.968 Y175.628 E56.94082
G1 X80.893 Y177.91 E57.66297
G1 X88.092 Y180.521 E58.68177
G1 X95.644 Y182.474 E59.71955
G1 X101.302 Y183.464 E60.48373
G1 X103.26 Y183.665 E60.74559
G1 X103.943 Y183.74 E60.837
G1 X106.396 Y183.814 E61.1635
G1 X110.763 Y183.814 E61.74449
G1 F1500 E55.24449
G0 F6000 X110.763 Y184.164
G0 X111.354 Y184.306
G0 X111.371 Y184.725
G0 X111.382 Y185.235
G1 F1500 E61.74449
G1 F1200 X106.679 Y185.27 E62.37019
G1 X103.966 Y185.202 E62.73125
G1 X103.081 Y185.12 E62.84949
G1 X101.695 Y184.987 E63.03473
G1 X97.611 Y184.372 E63.5842
G1 X92.095 Y183.183 E64.3349
G1 X86.642 Y181.591 E65.09066
G1 X81.31 Y179.619 E65.84699
G1 X76.14 Y177.285 E66.60165
G1 X71.221 Y174.63 E67.34532
G1 X66.605 Y171.668 E68.075
G1 X63.393 Y169.292 E68.60653
G1 X61.667 Y167.853 E68.9055
G1 X59.574 Y165.957 E69.28121
G1 X56.516 Y163.008 E69.84641
G1 X53.649 Y160.045 E70.39493
G1 X51.962 Y158.178 E70.7297
G1 X50.571 Y156.463 E71.02348
G1 X48.163 Y153.081 E71.57582
G1 X45.001 Y148.008 E72.37111
G1 X42.165 Y142.676 E73.17458
G1 X40.347 Y138.702 E73.75598
G1 X39.83 Y137.372 E73.94582
G1 X39.01 Y135.291 E74.2434
G1 X37.048 Y128.798 E75.1458
G1 X35.337 Y120.014 E76.3364
G1 X34.687 Y111.12 E77.52281
G1 X35.089 Y102.235 E78.70609
G1 X36.527 Y93.445 E79.89106
G1 X38.997 Y84.836 E81.08261
G1 X42.487 Y76.531 E82.28111
G1 X45.745 Y70.523 E83.19038
G1 X47.688 Y67.537 E83.66434
G1 X49.957 Y64.407 E84.17866
G1 X53.285 Y60.35 E84.87677
G1 X56.902 Y56.516 E85.57801
G1 X60.79 Y52.918 E86.28278
G1 X64.886 Y49.611 E86.98315
G1 X69.197 Y46.594 E87.68319
G1 X73.638 Y43.931 E88.3721
G1 X77.06 Y42.153 E88.88515
G1 X80.139 Y40.752 E89.3352
G1 X86.108 Y38.48 E90.1849
G1 X93.877 Y36.332 E91.25727
G1 X101.867 Y35.11 E92.33262
G1 X108.307 Y34.73 E93.19089
G1 X111.699 Y34.738 E93.64217
G1 X115.474 Y34.856 E94.14464
G1 X119.796 Y35.217 E94.72165
G1 X123.999 Y35.888 E95.2879
G1 X127.398 Y36.633 E95.75084
G1 X130.533 Y37.426 E96.18105
G1 X136.388 Y39.42 E97.00394
G1 X144.211 Y42.874 E98.14165
G1 X151.539 Y47.047 E99.26356
G1 X156.426 Y50.452 E100.05598
G1 X157.94 Y51.718 E100.31855
G1 X158.65 Y52.318 E100.44222
G1 X160.753 Y54.242 E100.82143
G1 X163.78 Y57.202 E101.38468
G1 X166.646 Y60.221 E101.93849
G1 X168.401 Y62.209 E102.29129
G1 X170.459 Y64.796 E102.73109
G1 X174.546 Y70.999 E103.71937
G1 X179.078 Y79.844 E105.04159
G1 X182.47 Y89.296 E106.37761
G1 X184.274 Y96.701 E107.39159
G1 X184.664 Y99.193 E107.72716
G1 X184.853 Y100.416 E107.8918
G1 X185.15 Y104.123 E108.38656
G1 X185.314 Y109.983 E109.16648
G1 X185.15 Y115.842 E109.94627
G1 X184.853 Y119.547 E110.44077
G1 X184.342 Y122.829 E110.88267
G1 X182.949 Y128.965 E111.71978
G1 X180.418 Y136.834 E112.81949
G1 X177.067 Y144.389 E113.91905
G1 X174.05 Y149.838 E114.74769
G1 X171.929 Y153.111 E115.26657
G1 X168.652 Y157.402 E115.98488
G1 X163.549 Y163.039 E116.99648
G1 X157.931 Y168.177 E118.00935
G1 X153.552 Y171.576 E118.74684
G1 X152.031 Y172.586 E118.98974
G1 X150.244 Y173.777 E119.27545
G1 X144.6 Y176.936 E120.13595
G1 X136.661 Y180.45 E121.291
G1 X128.393 Y183.06 E122.44448
G1 X122.101 Y184.414 E123.30073
G1 X119.983 Y184.699 E123.58505
G1 X119.045 Y184.823 E123.71093
G1 X116.178 Y185.035 E124.0934
G1 X111.382 Y185.235 E124.73202
;TIME_ELAPSED:52.384571
G1 F1500 E118.23202
M140 S0
; Ender 3 Custom End G-code
M400 ; Wait for current moves to finish
M220 S100 ; Reset Speed factor override percentage to default (100%)
M221 S100 ; Reset Extrude factor override percentage to default (100%)
G91 ; Set coordinates to relative
G1 F2400 E-3 ; Retract filament 3mm at 40mm/s to prevent stringing
G0 F5000 Z20 ; Move Z Axis up 20mm to allow filament ooze freely
G90 ; Set coordinates to absolute
G0 X0 Y235 F5000 ; Move Heat Bed to the front for easy print removal
M84 ; Disable stepper motors
; End of custom end GCode
M82 ;absolute extrusion mode
;End of Gcode
;SETTING_3 {"global_quality": "[general]\\nversion = 4\\nname = Draft Quality #2
;SETTING_3 \\ndefinition = creality_ender3pro\\n\\n[metadata]\\ntype = quality_c
;SETTING_3 hanges\\nquality_type = draft\\nsetting_version = 16\\n\\n[values]\\n
;SETTING_3 adhesion_type = none\\nlayer_height = 2\\n\\n", "extruder_quality": [
;SETTING_3 "[general]\\nversion = 4\\nname = Draft Quality #2\\ndefinition = cre
;SETTING_3 ality_ender3pro\\n\\n[metadata]\\ntype = quality_changes\\nquality_ty
;SETTING_3 pe = draft\\nsetting_version = 16\\nposition = 0\\n\\n[values]\\nbott
;SETTING_3 om_layers = 0\\ninfill_sparse_density = 0\\ntop_bottom_thickness = 0.
;SETTING_3 2\\ntop_layers = 0\\nwall_line_count = 5\\n\\n"]}
